source/static/img/logo_mini.svg

<svg fill="none" height="166" viewBox="0 0 166 166" width="166" xmlns="http://www.w3.org/2000/svg" xmlns:xlink="http://www.w3.org/1999/xlink"><linearGradient id="a" gradientUnits="userSpaceOnUse" x1="24.304" x2="141.676" y1="24.304" y2="141.676"><stop offset="0" stop-color="#00baaf"/><stop offset="1" stop-color="#6d69fb"/></linearGradient><path d="m83.0101 0h-.0202c-45.8341 0-82.9899 37.1558-82.9899 82.9899v.0202c0 45.8339 37.1558 82.9899 82.9899 82.9899h.0202c45.8339 0 82.9899-37.156 82.9899-82.9899v-.0202c0-45.8341-37.156-82.9899-82.9899-82.9899z" fill="url(#a)"/><g fill="#fff"><path d="m69.1279 63.6437c-.0361-1.641.4846-3.246 1.4773-4.5532.5304-.6458 1.2076-1.1555 1.975-1.4864s1.6028-.4735 2.4365-.4159c.7942-.0479 1.5892.0775 2.33.3675.7409.29 1.4097.7378 1.9602 1.3122 1.0032 1.1192 1.5956 2.5466 1.6796 4.0473l1.3963 7.0828v8.9242c0 10.7928-2.5228 18.7998-7.5684 24.0208-5.0457 5.221-12.8232 7.852-23.3327 7.892-1.2708.044-2.5374-.169-3.7235-.627-.8813-.357-1.6551-.935-2.2463-1.68-.5677-.742-.9494-1.609-1.113-2.529-.1954-1.034-.2903-2.085-.2833-3.137v-21.4102c-.0405-2.8975.2928-5.7882.9916-8.6005.5522-2.2551 1.6502-4.3399 3.1974-6.071 1.5818-1.6618 3.5697-2.8824 5.7673-3.5413 2.808-.8438 5.7298-1.2466 8.6613-1.194.6611-.0384 1.3225.0686 1.9379.3133.6153.2447 1.1695.6213 1.6237 1.1033.9765 1.391 1.4282 3.0832 1.2749 4.7758v.8904h-4.8365c-1.6926-.0287-3.383.1342-5.0389.4857-1.3125.2803-2.519.9256-3.4807 1.8617-.9932 1.0553-1.6911 2.3535-2.0236 3.764-.4824 2.0344-.7001 4.1225-.6476 6.2126v22.2602c3.554.067 7.1007-.349 10.5432-1.234 2.7489-.698 5.2718-2.092 7.3256-4.0478 2.0574-2.1355 3.5342-4.7618 4.2902-7.6291.9921-3.8786 1.4349-7.8772 1.3153-11.8789v-8.904c-.83.0591-1.6622-.0787-2.4288-.4022-.7667-.3236-1.446-.8237-1.9827-1.4596-.997-1.2894-1.5188-2.8833-1.4773-4.5127z"/><path d="m119.558 49.2553c-.029-1.2874.323-2.5546 1.012-3.6426.493-.5744 1.121-1.0174 1.827-1.2894.706-.2719 1.469-.3643 2.22-.2688.75-.0831 1.509.015 2.214.2861.704.2712 1.333.7074 1.833 1.2721.738 1.0695 1.12 2.3438 1.093 3.6426.04 1.3067-.343 2.5913-1.093 3.6628-.515.541-1.148.9557-1.85 1.212-.702.2562-1.454.347-2.197.2652-.743.0931-1.498.0076-2.202-.2493s-1.336-.6778-1.845-1.2279c-.706-1.0881-1.059-2.367-1.012-3.6628zm.506 20.4995h-26.1456v36.1222c.1011 4.754-.3196 9.504-1.2547 14.166-.6333 3.194-2.0209 6.192-4.0473 8.742-1.8263 2.161-4.2579 3.726-6.9816 4.492-3.2964.895-6.7031 1.317-10.1182 1.255-.6788.082-1.3674.005-2.0105-.227-.6432-.232-1.223-.612-1.6928-1.109-.7851-1.345-1.1382-2.899-1.0118-4.452v-.931h4.6948c2.2692.038 4.5356-.172 6.759-.627 1.8715-.397 3.5419-1.443 4.7151-2.955 1.398-1.94 2.3074-4.189 2.651-6.556.6327-3.9.9105-7.848.8297-11.798v-36.1222h-10.9277c-.1007-.9493.0124-1.9092.331-2.8092.3187-.8999.8348-1.7171 1.5105-2.3915 1.124-.9741 2.56-1.5126 4.0473-1.5178h5.4639c.2795-3.2091 1.0084-6.3631 2.1653-9.3695.9322-2.3149 2.4194-4.365 4.3306-5.9697 1.9087-1.5546 4.1537-2.6425 6.5566-3.1772 2.9114-.6282 5.8854-.9268 8.8634-.8904.681-.08 1.37.001 2.013.2366.644.2355 1.223.6189 1.69 1.1193.787 1.3449 1.14 2.8993 1.012 4.452v.9309h-4.715c-1.896-.0144-3.79.1142-5.666.3845-1.534.1989-2.994.7761-4.2497 1.6796-1.2768 1.0055-2.2733 2.3226-2.8938 3.8247-.8737 2.1467-1.426 4.4106-1.6392 6.7185h32.3787 1.113s-.182 6.6781-4.837 6.6781"/><path d="m124.617 55.2457c3.185 0 5.767-2.5821 5.767-5.7674 0-3.1852-2.582-5.7674-5.767-5.7674s-5.767 2.5822-5.767 5.7674c0 3.1853 2.582 5.7674 5.767 5.7674z"/></g></svg>

<svg width="166" height="166" viewBox="0 0 166 166" fill="none" xmlns="http://www.w3.org/2000/svg">
<path d="M83.0101 0H82.9899C37.1558 0 0 37.1558 0 82.9899V83.0101C0 128.844 37.1558 166 82.9899 166H83.0101C128.844 166 166 128.844 166 83.0101V82.9899C166 37.1558 128.844 0 83.0101 0Z" fill="url(#paint0_linear)"/>
<path d="M69.1279 63.6437C69.0918 62.0027 69.6125 60.3977 70.6052 59.0905C71.1356 58.4447 71.8128 57.935 72.5802 57.6041C73.3476 57.2732 74.183 57.1306 75.0167 57.1882C75.8109 57.1403 76.6059 57.2657 77.3467 57.5557C78.0876 57.8457 78.7564 58.2935 79.3069 58.8679C80.3101 59.9871 80.9025 61.4145 80.9865 62.9152L82.3828 69.998V78.9222C82.3828 89.715 79.86 97.722 74.8144 102.943C69.7687 108.164 61.9912 110.795 51.4817 110.835C50.2109 110.879 48.9443 110.666 47.7582 110.208C46.8769 109.851 46.1031 109.273 45.5119 108.528C44.9442 107.786 44.5625 106.919 44.3989 105.999C44.2035 104.965 44.1086 103.914 44.1156 102.862V81.4518C44.0751 78.5543 44.4084 75.6636 45.1072 72.8513C45.6594 70.5962 46.7574 68.5114 48.3046 66.7803C49.8864 65.1185 51.8743 63.8979 54.0719 63.239C56.8799 62.3952 59.8017 61.9924 62.7332 62.045C63.3943 62.0066 64.0557 62.1136 64.6711 62.3583C65.2864 62.603 65.8406 62.9796 66.2948 63.4616C67.2713 64.8526 67.723 66.5448 67.5697 68.2374V69.1278H62.7332C61.0406 69.0991 59.3502 69.262 57.6943 69.6135C56.3818 69.8938 55.1753 70.5391 54.2136 71.4752C53.2204 72.5305 52.5225 73.8287 52.19 75.2392C51.7076 77.2736 51.4899 79.3617 51.5424 81.4518V103.712C55.0964 103.779 58.6431 103.363 62.0856 102.478C64.8345 101.78 67.3574 100.386 69.4112 98.4302C71.4686 96.2947 72.9454 93.6684 73.7014 90.8011C74.6935 86.9225 75.1363 82.9239 75.0167 78.9222V70.0182C74.1867 70.0773 73.3545 69.9395 72.5879 69.616C71.8212 69.2924 71.1419 68.7923 70.6052 68.1564C69.6082 66.867 69.0864 65.2731 69.1279 63.6437Z" fill="white"/>
<path d="M119.558 49.2553C119.529 47.9679 119.881 46.7007 120.57 45.6127C121.063 45.0383 121.691 44.5953 122.397 44.3233C123.103 44.0514 123.866 43.959 124.617 44.0545C125.367 43.9714 126.126 44.0695 126.831 44.3406C127.535 44.6118 128.164 45.048 128.664 45.6127C129.402 46.6822 129.784 47.9565 129.757 49.2553C129.797 50.562 129.414 51.8466 128.664 52.9181C128.149 53.4591 127.516 53.8738 126.814 54.1301C126.112 54.3863 125.36 54.4771 124.617 54.3953C123.874 54.4884 123.119 54.4029 122.415 54.146C121.711 53.8891 121.079 53.4682 120.57 52.9181C119.864 51.83 119.511 50.5511 119.558 49.2553ZM120.064 69.7548H93.9184V105.877C94.0195 110.631 93.5988 115.381 92.6637 120.043C92.0304 123.237 90.6428 126.235 88.6164 128.785C86.7901 130.946 84.3585 132.511 81.6348 133.277C78.3384 134.172 74.9317 134.594 71.5166 134.532C70.8378 134.614 70.1492 134.537 69.5061 134.305C68.8629 134.073 68.2831 133.693 67.8133 133.196C67.0282 131.851 66.6751 130.297 66.8015 128.744V127.813H71.4963C73.7655 127.851 76.0319 127.641 78.2553 127.186C80.1268 126.789 81.7972 125.743 82.9704 124.231C84.3684 122.291 85.2778 120.042 85.6214 117.675C86.2541 113.775 86.5319 109.827 86.4511 105.877V69.7548H75.5234C75.4227 68.8055 75.5358 67.8456 75.8544 66.9456C76.1731 66.0457 76.6892 65.2285 77.3649 64.5541C78.4889 63.58 79.9249 63.0415 81.4122 63.0363H86.8761C87.1556 59.8272 87.8845 56.6732 89.0414 53.6668C89.9736 51.3519 91.4608 49.3018 93.372 47.6971C95.2807 46.1425 97.5257 45.0546 99.9286 44.5199C102.84 43.8917 105.814 43.5931 108.792 43.6295C109.473 43.5495 110.162 43.6305 110.805 43.8661C111.449 44.1016 112.028 44.485 112.495 44.9854C113.282 46.3303 113.635 47.8847 113.507 49.4374V50.3683H108.792C106.896 50.3539 105.002 50.4825 103.126 50.7528C101.592 50.9517 100.132 51.5289 98.8763 52.4324C97.5995 53.4379 96.603 54.755 95.9825 56.2571C95.1088 58.4038 94.5565 60.6677 94.3433 62.9756H126.722H127.835C127.835 62.9756 127.653 69.6537 122.998 69.6537" fill="white"/>
<path d="M124.617 55.2457C127.802 55.2457 130.384 52.6636 130.384 49.4783C130.384 46.2931 127.802 43.7109 124.617 43.7109C121.432 43.7109 118.85 46.2931 118.85 49.4783C118.85 52.6636 121.432 55.2457 124.617 55.2457Z" fill="white"/>
<defs>
<linearGradient id="paint0_linear" x1="24.304" y1="24.304" x2="141.676" y2="141.676" gradientUnits="userSpaceOnUse">
<stop stop-color="#00BAAF"/>
<stop offset="1" stop-color="#6D69FB"/>
</linearGradient>
</defs>
</svg>
